X: 1
T: Lad O'Beirne's
M: 4/4
L: 1/8
R: hornpipe
K: Gmaj
Bc | dBgd BdcB | Agfa ~g3e | dfec BdcA  | FdAF (3.D.E.D (3.C.B,.A, | 
G,B,DG BGDB, | CEAB c3A | (3.B.c.B GB cAFD  | G2GF G2 :|
ga | bgdg bgdg | afdf afdf | (3.g.a.g (3.f.g.f (3.e.f.e dB | (3.c.B.A (3.B.A.G (3.F.E.D (3.C.B,.A, |
G,B,DG BGDB, | CEAB c3A | (3.B.c.B GB cAFD  | G2GF G2 :|
